assets/logos/google-logo.svg

<svg width="96" height="32" viewBox="0 0 96 32" fill="none" xmlns="http://www.w3.org/2000/svg">
<path d="M40.9273 16.4103C40.9273 20.8521 37.4381 24.1251 33.1561 24.1251C28.8742 24.1251 25.385 20.8521 25.385 16.4103C25.385 11.9373 28.8742 8.69556 33.1561 8.69556C37.4381 8.69556 40.9273 11.9373 40.9273 16.4103ZM37.5255 16.4103C37.5255 13.6347 35.5032 11.7356 33.1561 11.7356C30.8091 11.7356 28.7868 13.6347 28.7868 16.4103C28.7868 19.1582 30.8091 21.0851 33.1561 21.0851C35.5032 21.0851 37.5255 19.1547 37.5255 16.4103Z" fill="#EA4335"/>
<path d="M57.6919 16.4103C57.6919 20.8521 54.2028 24.1251 49.9208 24.1251C45.6388 24.1251 42.1497 20.8521 42.1497 16.4103C42.1497 11.9408 45.6388 8.69556 49.9208 8.69556C54.2028 8.69556 57.6919 11.9373 57.6919 16.4103ZM54.2901 16.4103C54.2901 13.6347 52.2679 11.7356 49.9208 11.7356C47.5737 11.7356 45.5515 13.6347 45.5515 16.4103C45.5515 19.1582 47.5737 21.0851 49.9208 21.0851C52.2679 21.0851 54.2901 19.1547 54.2901 16.4103Z" fill="#FBBC05"/>
<path d="M73.7582 9.16164V23.0121C73.7582 28.7095 70.3843 31.0364 66.3957 31.0364C62.6411 31.0364 60.3814 28.5356 59.5292 26.4903L62.4909 25.2625C63.0183 26.5182 64.3106 27.9999 66.3922 27.9999C68.9453 27.9999 70.5275 26.4312 70.5275 23.4782V22.3686H70.4088C69.6474 23.3043 68.1805 24.1216 66.3294 24.1216C62.456 24.1216 58.9075 20.7616 58.9075 16.4382C58.9075 12.0834 62.456 8.69556 66.3294 8.69556C68.177 8.69556 69.6439 9.51295 70.4088 10.4208H70.5275V9.16512H73.7582V9.16164ZM70.7685 16.4382C70.7685 13.7216 68.9488 11.7356 66.6332 11.7356C64.2862 11.7356 62.3198 13.7216 62.3198 16.4382C62.3198 19.1269 64.2862 21.0851 66.6332 21.0851C68.9488 21.0851 70.7685 19.1269 70.7685 16.4382Z" fill="#4285F4"/>
<path d="M79.0846 1.04346V23.6522H75.7666V1.04346H79.0846Z" fill="#34A853"/>
<path d="M92.0145 18.9495L94.6549 20.7026C93.8027 21.9582 91.749 24.1217 88.2005 24.1217C83.7998 24.1217 80.5132 20.7339 80.5132 16.4069C80.5132 11.8191 83.8277 8.69214 87.8198 8.69214C91.8398 8.69214 93.8062 11.8782 94.4488 13.6L94.8016 14.4765L84.4459 18.7478C85.2387 20.2956 86.4716 21.0852 88.2005 21.0852C89.9329 21.0852 91.1343 20.2365 92.0145 18.9495ZM83.8871 16.1739L90.8095 13.3113C90.4288 12.3478 89.2832 11.6765 87.9351 11.6765C86.2062 11.6765 83.7998 13.1965 83.8871 16.1739Z" fill="#EA4335"/>
<path d="M12.8255 14.4036V11.1305H23.9007C24.009 11.701 24.0649 12.3757 24.0649 13.1062C24.0649 15.5618 23.3908 18.5984 21.2184 20.7618C19.1053 22.9531 16.4055 24.1218 12.829 24.1218C6.2 24.1218 0.625732 18.7444 0.625732 12.1427C0.625732 5.54097 6.2 0.163574 12.829 0.163574C16.4963 0.163574 19.1088 1.59662 21.0717 3.46444L18.7526 5.77401C17.345 4.45923 15.438 3.43662 12.8255 3.43662C7.98474 3.43662 4.19871 7.32183 4.19871 12.1427C4.19871 16.9636 7.98474 20.8488 12.8255 20.8488C15.9654 20.8488 17.7537 19.5931 18.8993 18.4523C19.8283 17.5271 20.4395 16.2053 20.6805 14.4001L12.8255 14.4036Z" fill="#4285F4"/>
</svg>

<svg xmlns="http://www.w3.org/2000/svg" width="96" height="32" fill="none"><path fill="#EA4335" d="M40.927 16.41c0 4.442-3.489 7.715-7.77 7.715-4.283 0-7.772-3.273-7.772-7.715 0-4.473 3.49-7.714 7.771-7.714 4.282 0 7.771 3.241 7.771 7.714Zm-3.401 0c0-2.775-2.023-4.674-4.37-4.674s-4.37 1.899-4.37 4.674c0 2.748 2.023 4.675 4.37 4.675s4.37-1.93 4.37-4.675Z"/><path fill="#FBBC05" d="M57.692 16.41c0 4.442-3.49 7.715-7.771 7.715-4.282 0-7.771-3.273-7.771-7.715 0-4.47 3.489-7.714 7.77-7.714 4.283 0 7.772 3.241 7.772 7.714Zm-3.402 0c0-2.775-2.022-4.674-4.37-4.674-2.346 0-4.369 1.899-4.369 4.674 0 2.748 2.023 4.675 4.37 4.675s4.37-1.93 4.37-4.675Z"/><path fill="#4285F4" d="M73.758 9.162v13.85c0 5.697-3.374 8.024-7.362 8.024-3.755 0-6.015-2.5-6.867-4.546l2.962-1.227C63.018 26.517 64.31 28 66.392 28c2.553 0 4.136-1.569 4.136-4.522v-1.11h-.12c-.76.936-2.228 1.754-4.079 1.754-3.873 0-7.421-3.36-7.421-7.684 0-4.355 3.548-7.742 7.421-7.742 1.848 0 3.315.817 4.08 1.725h.118V9.165h3.231v-.003Zm-2.99 7.276c0-2.716-1.82-4.702-4.135-4.702-2.347 0-4.313 1.986-4.313 4.702 0 2.689 1.966 4.647 4.313 4.647 2.316 0 4.136-1.958 4.136-4.647Z"/><path fill="#34A853" d="M79.085 1.043v22.61h-3.318V1.042h3.318Z"/><path fill="#EA4335" d="m92.014 18.95 2.64 1.753c-.851 1.255-2.905 3.419-6.453 3.419-4.401 0-7.688-3.388-7.688-7.715 0-4.588 3.315-7.715 7.307-7.715 4.02 0 5.986 3.186 6.629 4.908l.353.877-10.356 4.27c.793 1.549 2.026 2.338 3.755 2.338 1.732 0 2.933-.849 3.814-2.136Zm-8.127-2.776 6.922-2.863c-.38-.963-1.526-1.634-2.874-1.634-1.729 0-4.135 1.52-4.048 4.497Z"/><path fill="#4285F4" d="M12.825 14.404V11.13h11.076a10.8 10.8 0 0 1 .164 1.976c0 2.456-.674 5.492-2.847 7.656-2.113 2.191-4.813 3.36-8.389 3.36C6.2 24.122.626 18.744.626 12.142.626 5.542 6.2.165 12.829.165c3.667 0 6.28 1.433 8.243 3.3l-2.32 2.31c-1.407-1.315-3.314-2.337-5.926-2.337-4.841 0-8.627 3.885-8.627 8.706 0 4.82 3.786 8.706 8.627 8.706 3.14 0 4.928-1.256 6.073-2.397.93-.925 1.54-2.247 1.781-4.052l-7.854.004Z"/></svg>
